X:1
Q:1/4=90
L:1/8
M:2/4
K:C clef=G2
V:1
%%MIDI program 52
G2-G31/32A31/32|B31/16B31/32B31/32|B31/32A31/32G31/16|D31/32zGz/2^F31/64|
G31/32E31/32D31/32G31/32|B31/32B31/32B31/32B31/64B31/64|Az/2G31/64A31/16|zG31/32B31/32A31/32|
Gz/2^F31/64E31/32D31/32|E31/32^F31/32
L:1/8
M:2/4
K:C clef=G2
V:2
%%MIDI program 0
[B,-D-G-]2[B,DG]7/8z3/16[D^FA]15/16|[DGB]15/8[DGB]15/16[DGB]15/16|[DGB]15/16[CEA]15/16[B,DG]15/8|[G,B,D]15/16z[B,DG]z/2^F15/32|
[B,DG]15/16[CE]15/16[B,D]15/16[B,DG]15/16|[DGB]15/16[DGB]15/16[DGB]15/16[EGB]15/32[EGB]15/32|[D-^F-A][D-^F-]/2[D-^F-G]15/32[AD^F]15/8|z[B,DG]15/16[DGB]15/16[D^FA]15/16|
[B,-D-G][B,-D-]/2[^F-B,D]3/8[EG,C]15/16[DG,B,]15/16|[A,CE]15/16[A,D^F]15/16
L:1/8
M:2/4
K:C clef=F4
V:3
%%MIDI program 0
[G,,-G,-]2[G,,G,]7/8z3/16[D,A,]15/16|[G,,G,]15/8[G,,G,]15/16[G,,G,]15/16|[D,,D,]15/16[C,,C,]15/16[B,,,B,,]15/8|[D,,D,]15/16[B,,,B,,]15/16[D,,D,]15/8|
[G,,G,]15/8[G,,,G,,]15/16[G,,,G,,]15/16|[G,,,G,,]15/16[G,,,G,,]15/16[G,,,G,,]15/16[C,,C,]15/16|[D,,D,]15/8[D,,D,]15/8|[G,,,G,,]15/8[D,,D,]15/16[D,,D,]15/16|
[G,,G,]15/8[C,,C,]15/16[B,,,B,,]15/16|[A,,,A,,]15/16[D,,D,]15/16
Q:1/4=45
L:1/8
M:2/4
K:C clef=G2
V:1
%%MIDI program 52
G31/16
L:1/8
M:2/4
K:C clef=F4
V:2
%%MIDI program 0
[B,DG]15/8
L:1/8
M:2/4
K:C clef=F4
V:3
%%MIDI program 0
[G,,,G,,]15/8
Q:1/4=90
L:1/8
M:2/4
K:C clef=G2
V:1
%%MIDI program 52
G31/32G31/32G31/32A31/32|B31/16G31/32G31/32|A31/32c31/32B31/32G31/32|A31/16zB31/32|
B31/32A31/32G31/16|G31/32G31/32A31/32G31/32|^Fz/2E31/64E31/32E31/32|E31/16G31/32G31/32|
G31/32^F31/32E31/16|D31/16z2|G31/16D31/16|
L:1/8
M:2/4
K:C clef=F4
V:2
%%MIDI program 0
[B,DG]15/16[B,DG]15/16[B,DG]15/16[D^FA]15/16|[DGB]15/8[B,DG]15/16[B,DG]15/16|[CEA]15/16[EAc]15/16[DGB]15/16[B,DG]15/16|[D^FA]15/8D15/16[GBD]15/16|
[DGB]15/16[CD^FA]15/16[B,DG]15/8|[B,DG]15/16[B,DG]15/16[CEA]15/16[B,DG]15/16|[A,D^F]z/2[A,CE]15/32[A,CE]15/16[A,CE]15/16|[A,CE]15/8[CEG]15/16[CEG]15/16|
[B,EG]15/16[B,D^F]15/16[G,CE]15/8|[G,B,D]15/8z2|[B,DG]15/8[G,B,D]15/8|
L:1/8
M:2/4
K:C clef=F4
V:3
%%MIDI program 0
[B,,,B,,]15/16[D,,D,]15/16[B,,,B,,]15/16[A,,,A,,]15/16|[G,,,G,,]15/8[D,,D,]15/16[B,,,B,,]15/16|[C,,C,]15/16[C,,C,]15/16[G,,G,]15/8|[A,D,]15/16[A,C,]15/16B,,15/16G,,15/16|
D,15/8[G,,G,]15/8|[D,,D,]15/8[C,,C,]15/16[B,,,B,,]15/16|[A,,,A,,]15/8[A,,,A,,]15/8|[A,,,A,,]15/8[A,,,A,,]15/16[C,,C,]15/16|
[E,,E,]15/16[D,,D,]15/16[C,,C,]15/8|[D,,D,]15/8[B,,,B,,]15/16[A,,,A,,]15/16|[G,,,G,,]15/8[G,,,G,,]15/8|
Q:1/4=400
Q:1/4=90
L:1/8
M:2/4
K:C clef=G2
V:1
%%MIDI program 52
G31/32A31/32B31/16|
L:1/8
M:2/4
K:C clef=G2
V:2
%%MIDI program 0
[CEG]15/16[CEA]15/16[DGB]15/8|
L:1/8
M:2/4
K:C clef=F4
V:3
%%MIDI program 0
[C,,C,]15/16[C,,C,]15/16[G,,G,]15/8|
Q:1/4=400
Q:1/4=90
L:1/8
M:2/4
K:C clef=G2
V:1
%%MIDI program 52
A31/16B31/32c31/32|A62/16|
L:1/8
M:2/4
K:C clef=G2
V:2
%%MIDI program 0
[D^FA]15/8[DGB]15/16[DAc]15/16|[CD^FA]30/8z7/32|
L:1/8
M:2/4
K:C clef=F4
V:3
%%MIDI program 0
[D,,D,]15/8[D,,D,]15/16[D,,D,]15/16|[D,,D,]30/8z7/32|
Q:1/4=45
L:1/8
M:2/4
K:C clef=G2
V:1
%%MIDI program 52
G2-G31/64
L:1/8
M:2/4
K:C clef=F4
V:2
%%MIDI program 0
[B,-D-G-]2[B,DG]7/16
L:1/8
M:2/4
K:C clef=F4
V:3
%%MIDI program 0
[G,,,G,,]15/8
Q:1/4=90
L:1/8
M:2/4
K:C clef=F4
V:2
%%MIDI program 0
z4|z[B,DG]15/16[B,DG]15/16[B,DG]15/16|[B,DG]15/16[D^FA]15/16[DGB]15/8|[DGB]15/16[DGB]15/32[D^FA]15/32[B,DG]15/8|
[G,B,D]15/16z/2[B,DG]15/32[B,DG]15/16[A,D^F]15/16|[B,DG]15/16[CE]15/16[B,D]15/16[DGB]15/16|[DGB]15/8[D-^F-A][D-^F-]/2[G-D^F]3/8|[AD^F]15/8[B,DG]15/16[DGB]15/16|
[CEA]15/16[CEG]15/16[D^FA]15/8|[B,DG]15/16[B,D^F]15/16[G,CE]15/16[G,B,D]15/16|[A,CE]31/32[A,D^F]15/16[B,DG]15/8|z2[B,DG]15/8|
[B,DG]15/16[CEA]15/16[DGB]z/2[DGB]15/32|[B,DG]15/16[EGc]15/32[EGc]15/32[DGB]31/32[B,DG]15/16|[D^FA]15/8z[D^FA]15/16|[DGB]z/2[DGB]15/32[B,-D-A]15/32[B,-D-G]15/32[G-B,D]7/8|
[GG,D]15/8[A,D^F]15/16[G,CE]15/16|[A,CE]15/16[A,CE]15/16[B,DG]15/32[B,DG]15/32[B,DG]15/16|[B,EG]31/32[G,B,E]15/16[GB,D]15/16[B,-D-G]15/32[^F-B,D]7/16|[B,-E-G][B,-E-]/2[^F-B,E]3/8[G,CE]15/8|
[G,B,D]15/16z[B,-G]15/32[B,-D]15/32[B,-D]15/32[D-B,]3/8|[GG,D]15/16[AD^F]15/16[DGB]15/16[CEA]15/16|[DGB]15/16[EGc]15/16[CD^FA]31/16|[CD^FA]7/4z7/32
L:1/8
M:2/4
K:C clef=F4
V:3
%%MIDI program 0
[D,,D,]15/16[B,,,B,,]15/16[D,,D,]15/16[B,,,B,,]15/16|[D,,D,]15/8[G,,G,]15/16[G,,G,]15/16|[G,,G,]15/16[D,,D,]15/16[G,,G,]15/8|[D,,D,]15/16[D,,D,]15/16[G,,G,]15/8|
[B,,,B,,]15/16[D,,D,]15/16[G,,G,]15/16[D,,D,]15/16|[G,,G,]15/8[E,,E,]15/16[D,,D,]15/16|[G,,G,]15/8[D,,D,]15/8|[D,,D,]15/8[G,,G,]15/8|
[C,,C,]15/16[C,,C,]15/16[D,,D,]15/8|[B,,,B,,]15/8[C,,C,]15/16[B,,,B,,]15/16|[A,,,A,,]15/8[G,,,G,,]15/8|[B,,,B,,]15/16[G,,,G,,]15/16[G,,,G,,]15/16[D,,D,]15/16|
[G,,G,]15/8[G,,G,]15/8|[G,,G,]15/16[C,,C,]15/16[D,,D,]15/16[D,,D,]15/16|[D,,D,]15/8[G,,,G,,]15/16[D,,D,]15/16|[G,,G,]15/8[G,,G,]15/8|
[B,,,B,,]15/8[D,,D,]15/16[C,,C,]15/16|[A,,,A,,]15/8[D,,D,]15/8|[E,,E,]15/8[D,,D,]15/8|[E,,E,]15/8[C,,C,]15/8|
[D,,D,]15/16[B,,,B,,]15/16[G,,,G,,]15/8|[B,,,B,,]15/16[D,,D,]15/16[G,,G,]15/8|[D,,D,]15/16[A,,,A,,]15/16[D,,D,]31/16|[D,,D,]7/4z7/32
Q:1/4=45
L:1/8
M:2/4
K:C clef=F4
V:2
%%MIDI program 0
[B,-D-G-]2[B,DG]7/8(5:3z/4
L:1/8
M:2/4
K:C clef=F4
V:3
%%MIDI program 0
[G,,-G,-]2[G,,G,]7/8z/4
Q:1/4=90


